assets/icons/qvision/kitchen.svg

<svg xmlns="http://www.w3.org/2000/svg" enable-background="new 0 0 24 24" height="24" viewBox="0 0 24 24" width="24"><g><rect fill="none" height="24" width="24"/></g><g><g><path d="M20 9V4c0-1.1-.9-2-2-2H6c-1.1 0-2 .9-2 2v5h16zM8 5h2v3H8V5zm-4 6v9c0 1.1.9 2 2 2h12c1.1 0 2-.9 2-2v-9H4zm6 6H8v-5h2v5z"/></g></g></svg>

<svg width="24" height="24" viewBox="0 0 24 24" fill="none" xmlns="http://www.w3.org/2000/svg">
<g clip-path="url(#clip0_147_6222)">
<path d="M18 2.01L6 2C4.9 2 4 2.89 4 4V20C4 21.1 4.9 22 6 22H18C19.1 22 20 21.1 20 20V4C20 2.89 19.1 2.01 18 2.01ZM18 20H6V10.98H18V20ZM18 9H6V4H18V9ZM8 5H10V8H8V5ZM8 12H10V17H8V12Z" fill="#323232"/>
</g>
<defs>
<clipPath id="clip0_147_6222">
<rect width="24" height="24" fill="white"/>
</clipPath>
</defs>
</svg>
